X: 452
T: Last night's fun
C:anon.
O:Ireland
B:Francis O'Neill: "The Dance Music of Ireland" (1907) no. 452
R:Hop, Slip jig
Z:Transcribed by Frank Nordberg - http://www.musicaviva.com
F:http://www.musicaviva.com/abc/tunes/ireland/oneill-1001/oneill-1001-045
2.abc
M:9/8
L:1/8
K:Dmix
D2A A2(G A)Bc|D2A AGE (G2E)|D2A A2(G A)Bc|BAG AGE G2E|D2A A2(G A)Bc|D2A A
GE (G2E)|D2A A2(G A)Bc|dBG AGE G2E||
(BA)(B d)BG (AB)c|(BA)(B d)BG c2A|(BA)(B d)BG (AB)c|BAG AGE G2E|(BA)(B d)
BG (AB)c|B2(c d)BG c2A|(de)(f g)fe (dB)G|(BA)(G A)GE G2E|]
W:
W:
W:  From Musica Viva - http://www.musicaviva.com
W:  the Internet center for free sheet music downloads.


